brandFactory_export/2.Regular/Robot_2Regular.svg

<?xml version="1.0" encoding="UTF-8"?>
<svg width="24px" height="24px" viewBox="0 0 24 24" version="1.1" xmlns="http://www.w3.org/2000/svg" xmlns:xlink="http://www.w3.org/1999/xlink">
    <title>2.Regular/Robot_2Regular</title>
    <g id="Symbols" stroke="none" stroke-width="1" fill="none" fill-rule="evenodd">
        <g id="2.Regular/Robot_2Regular" fill="#5CB615" fill-rule="nonzero">
            <path d="M13.3697479,11.4655462 L18.8218487,11.4655462 L18.8218487,3.05546218 L4.84537815,3.05546218 L4.84537815,5.60336134 C4.8487395,5.63697479 4.85546218,5.67058824 4.85546218,5.70420168 L4.85546218,9.17310924 C4.85546218,9.20672269 4.8487395,9.24033613 4.84537815,9.27394958 L4.84537815,11.4689076 L10.297479,11.4689076 C10.3109244,11.4689076 10.3210084,11.4621849 10.3344538,11.4621849 L13.3327731,11.4621849 C13.3462185,11.4588235 13.3563025,11.4655462 13.3697479,11.4655462 Z M11.0907563,13.8352941 L12.5731092,13.8352941 L12.5731092,12.9310924 L11.0907563,12.9310924 L11.0907563,13.8352941 Z M21.1411765,15.3042017 L13.3529412,15.3042017 C13.3462185,15.3042017 13.3394958,15.3109244 13.3294118,15.3109244 L10.3310924,15.3109244 C10.3243697,15.3109244 10.3176471,15.3042017 10.307563,15.3042017 L2.52605042,15.3042017 L2.52605042,22.1915966 L4.72436975,22.1915966 C4.72436975,22.1781513 4.7210084,22.1647059 4.7210084,22.1512605 L4.7210084,17.7378151 C4.7210084,16.9277311 5.39663866,16.2689076 6.23697479,16.2689076 L17.4336134,16.2689076 C18.2705882,16.2689076 18.9495798,16.9243697 18.9495798,17.7378151 L18.9495798,22.1512605 C18.9495798,22.1647059 18.9462185,22.1781513 18.9462185,22.1915966 L21.1445378,22.1915966 L21.1445378,15.3042017 L21.1411765,15.3042017 Z M6.23697479,22.1512605 L17.4336134,22.1512605 L17.4336134,17.7378151 L6.23697479,17.7378151 L6.23697479,22.1512605 Z M2.53277311,9.1697479 L3.32941176,9.1697479 L3.32941176,5.70084034 L2.53277311,5.70084034 L2.53277311,9.1697479 Z M20.3411765,9.18319328 L21.1478992,9.18319328 L21.1478992,5.71428571 L20.3411765,5.71428571 L20.3411765,9.18319328 Z M18.8218487,12.9344538 L14.0890756,12.9344538 L14.0890756,13.8386555 L21.1411765,13.8386555 C21.9781513,13.8386555 22.6571429,14.497479 22.6571429,15.307563 L22.6571429,22.194958 C22.6571429,23.005042 21.9781513,23.6638655 21.1411765,23.6638655 L2.52605042,23.6638655 C1.68907563,23.6638655 1.01008403,23.0084034 1.01008403,22.194958 L1.01008403,15.307563 C1.01008403,14.497479 1.68907563,13.8386555 2.52605042,13.8386555 L9.57815126,13.8386555 L9.57815126,12.9344538 L4.84537815,12.9344538 C4.00840336,12.9344538 3.32941176,12.2789916 3.32941176,11.4655462 L3.32941176,10.6386555 L2.53277311,10.6386555 C1.69579832,10.6386555 1.01680672,9.98319328 1.01680672,9.1697479 L1.01680672,5.70084034 C1.01680672,4.8907563 1.69579832,4.23193277 2.53277311,4.23193277 L3.32941176,4.23193277 L3.32941176,3.05210084 C3.32941176,2.24201681 4.00840336,1.58319328 4.84537815,1.58319328 L11.2285714,1.58319328 L11.2285714,1.2605042 C11.1210084,1.12941176 11.0470588,0.971428571 11.0470588,0.793277311 C11.0470588,0.373109244 11.4,0.0302521008 11.8336134,0.0302521008 C12.2672269,0.0302521008 12.6201681,0.373109244 12.6201681,0.793277311 C12.6201681,0.971428571 12.5462185,1.12941176 12.4386555,1.2605042 L12.4386555,1.58319328 L18.8218487,1.58319328 C19.6588235,1.58319328 20.3378151,2.23865546 20.3378151,3.05210084 L20.3378151,4.24537815 L21.1478992,4.24537815 C21.9848739,4.24537815 22.6638655,4.90084034 22.6638655,5.71428571 L22.6638655,9.18319328 C22.6638655,9.99327731 21.9848739,10.6521008 21.1478992,10.6521008 L20.3378151,10.6521008 L20.3378151,11.4655462 C20.3378151,12.2756303 19.6588235,12.9344538 18.8218487,12.9344538 Z M8.9697479,6.54789916 C9.27563025,6.54789916 9.52436975,6.30588235 9.52436975,6.01008403 C9.52436975,5.71428571 9.27563025,5.47563025 8.9697479,5.47563025 C8.66386555,5.47563025 8.41512605,5.71428571 8.41512605,6.01008403 C8.41512605,6.3092437 8.6605042,6.54789916 8.9697479,6.54789916 Z M10.9361345,6.01344538 C10.9361345,7.06554622 10.0521008,7.91932773 8.96638655,7.91932773 C7.88067227,7.91932773 6.99663866,7.06554622 6.99663866,6.01344538 C6.99663866,4.96470588 7.88067227,4.10756303 8.96638655,4.10756303 C10.0521008,4.10756303 10.9361345,4.96470588 10.9361345,6.01344538 L10.9361345,6.01344538 Z M14.697479,6.52773109 C15.0033613,6.52773109 15.2521008,6.28907563 15.2521008,5.99327731 C15.2521008,5.69747899 15.0033613,5.45882353 14.697479,5.45882353 C14.3915966,5.45882353 14.1428571,5.69747899 14.1428571,5.99327731 C14.1428571,6.28571429 14.3915966,6.52773109 14.697479,6.52773109 Z M14.697479,4.08739496 C15.7831933,4.08739496 16.6638655,4.94117647 16.6638655,5.99327731 C16.6638655,7.04201681 15.7798319,7.89915966 14.697479,7.89915966 C13.6151261,7.89915966 12.7277311,7.04537815 12.7277311,5.99327731 C12.7310924,4.94117647 13.6151261,4.08739496 14.697479,4.08739496 Z M13.7798319,8.76302521 C14.1966387,8.76302521 14.5361345,9.09243697 14.5361345,9.49579832 C14.5361345,9.90252101 14.1966387,10.2285714 13.7798319,10.2285714 L9.8907563,10.2285714 C9.47394958,10.2285714 9.13445378,9.89915966 9.13445378,9.49579832 C9.13445378,9.09243697 9.47394958,8.76302521 9.8907563,8.76302521 L13.7798319,8.76302521 L13.7798319,8.76302521 Z" id="Robot_2Regular"></path>
        </g>
    </g>
</svg>

<svg width="24" height="24" viewBox="0 0 24 24" xmlns="http://www.w3.org/2000/svg"><path d="M13.37 11.466h5.452v-8.41H4.845v2.547c.004.034.01.068.01.101v3.47c0 .033-.006.066-.01.1v2.195h5.452c.014 0 .024-.007.037-.007h2.999c.013-.003.023.004.037.004zm-2.28 2.37h1.483v-.905h-1.482v.904zm10.051 1.468h-7.788c-.007 0-.014.007-.024.007h-2.998c-.007 0-.013-.007-.023-.007H2.526v6.888h2.198c0-.014-.003-.027-.003-.04v-4.414c0-.81.676-1.47 1.516-1.47h11.197c.837 0 1.516.656 1.516 1.47v4.413c0 .014-.004.027-.004.04h2.199v-6.887h-.004zM6.237 22.151h11.197v-4.413H6.237v4.413zM2.533 9.17h.796V5.7h-.796v3.47zm17.808.013h.807V5.714h-.807v3.47zm-1.52 3.751H14.09v.905h7.052c.837 0 1.516.658 1.516 1.469v6.887c0 .81-.679 1.469-1.516 1.469H2.526c-.837 0-1.516-.656-1.516-1.469v-6.887c0-.81.68-1.47 1.516-1.47h7.052v-.904H4.845c-.837 0-1.516-.655-1.516-1.468v-.827h-.796c-.837 0-1.516-.656-1.516-1.47V5.702c0-.81.679-1.47 1.516-1.47h.796V3.053c0-.81.68-1.469 1.516-1.469h6.384v-.322a.736.736 0 01-.182-.468c0-.42.353-.763.787-.763.433 0 .786.343.786.763a.736.736 0 01-.181.468v.322h6.383c.837 0 1.516.656 1.516 1.47v1.192h.81c.837 0 1.516.656 1.516 1.47v3.468c0 .81-.68 1.47-1.516 1.47h-.81v.813c0 .81-.68 1.468-1.516 1.468zM8.97 6.548a.547.547 0 00.554-.538.545.545 0 00-.554-.534.545.545 0 00-.555.534c0 .3.246.538.555.538zm1.966-.535c0 1.053-.884 1.906-1.97 1.906-1.085 0-1.97-.853-1.97-1.906 0-1.048.885-1.905 1.97-1.905 1.086 0 1.97.857 1.97 1.905zm3.761.515a.545.545 0 00.555-.535.545.545 0 00-.555-.534.545.545 0 00-.554.534c0 .293.249.535.554.535zm0-2.44c1.086 0 1.967.853 1.967 1.905 0 1.049-.884 1.906-1.967 1.906-1.082 0-1.97-.854-1.97-1.906.004-1.052.888-1.906 1.97-1.906zm-.917 4.675c.417 0 .756.33.756.733 0 .407-.34.733-.756.733H9.89a.746.746 0 01-.756-.733c0-.404.34-.733.757-.733h3.889z" fill="#5CB615" fill-rule="nonzero"/></svg>
